swiss/communes/5725.svg

<svg xmlns="http://www.w3.org/2000/svg" xmlns:xlink="http://www.w3.org/1999/xlink" height="763" width="603" version="1.0"><defs><radialGradient xlink:href="#a" id="b" gradientUnits="userSpaceOnUse" gradientTransform="matrix(1.21503 0 0 1.26667 -839.192 -490.49)" cx="858.042" cy="579.933" fx="858.042" fy="579.933" r="300"/><linearGradient id="a"><stop style="stop-color:#fff;stop-opacity:.3137255" offset="0"/><stop offset=".19" style="stop-color:#fff;stop-opacity:.25098041"/><stop style="stop-color:#6b6b6b;stop-opacity:.1254902" offset=".6"/><stop style="stop-color:#000;stop-opacity:.1254902" offset="1"/></linearGradient></defs><g style="opacity:1;display:inline"><path d="M1.5 1.5v458.869C1.5 626.68 135.814 761.5 301.5 761.5s300-134.82 300-301.131V1.5H1.5z" style="opacity:1;fill:#2b5df2"/></g><g style="opacity:1;display:inline"><path style="fill:#fff;stroke:#000;stroke-width:3;stroke-linecap:round;stroke-linejoin:round" d="M241.158 402.734c-.809-5.334-2.971-12.003 5.191-16.084 5-2.5 8.997.998 8.997.998.305-1.925 1.352-3.847 3.419-5.915 6.25-6.25 11.667-.834 15.667 3.166 3.211 3.211 6.457 8.226 8.892 12.717-.722-3.879-3.725-12.883 4.775-16.383s13.804 8.035 15.735 15.184l1.89 5.482-62 11.25-2.566-10.415z"/><path style="fill:#fff" d="M601.499 460.369v-55.914c-71.362.692-124.037 8.445-148.399 8.445-25.5 0-28.25-1.75-40-1.75 0 0-30.25-22.5-67-22.5-10.75 0-29 7.5-38.25 7.5-7.64 0-11.357 2.558-16.363 5.139-67.661-5.922-89.054 17.778-89.054 17.778-16.333-3.667-16 0-60-1.667-35.05-1.328-111.345-3.501-140.934-4.331v47.299c0 12.174.74 24.172 2.139 35.968 69.636-2.274 118.713-4.358 146.711-6.937 19-1.75 39.25-.5 39.25-.5s7.129 9.18 30.969 19.116c0 0 5.531 39.884 46.031 71.884-1.5 9-.738 15.67-4.25 38.5-2.628 17.086-5.96 86.376-6.746 139.596a301.17 301.17 0 0 0 45.895 3.504c14.72 0 29.185-1.084 43.337-3.14.318-55.711 1.506-113.046-1.736-136.627-3.666-26.666-3.666-53.999-3.666-67.666 0 0 8.228-16.686 11.009-40.687 0 0 7.282 2.145 15.157-5.73 0 0 17.5 1.667 29-6.583 0 0 18.5 3.083 37-12.167 0 0 11.25-.5 20.5-.5 16.363 0 71.422 5.623 147.458 6.201a305.101 305.101 0 0 0 1.942-34.231z"/><path style="fill:none;stroke:#000;stroke-width:3;stroke-linecap:round;stroke-linejoin:round" d="M601.499 404.455c-71.362.692-124.037 8.445-148.399 8.445-25.5 0-28.25-1.75-40-1.75 0 0-30.25-22.5-67-22.5-10.75 0-29 7.5-38.25 7.5-7.64 0-11.357 2.558-16.363 5.139-67.661-5.922-89.054 17.778-89.054 17.778-16.333-3.667-16 0-60-1.667-35.05-1.328-111.345-3.501-140.934-4.331M344.836 758.36c.318-55.711 1.506-113.046-1.736-136.627-3.666-26.666-3.666-53.999-3.666-67.666 0 0 8.228-16.686 11.009-40.687 0 0 7.282 2.145 15.157-5.73 0 0 17.5 1.667 29-6.583 0 0 18.5 3.083 37-12.167 0 0 11.25-.5 20.5-.5 16.363 0 71.422 5.623 147.458 6.201M3.638 496.336c69.636-2.274 118.713-4.358 146.711-6.937 19-1.75 39.25-.5 39.25-.5s7.129 9.18 30.969 19.116c0 0 5.531 39.884 46.031 71.884-1.5 9-.738 15.67-4.25 38.5-2.628 17.086-5.96 86.376-6.746 139.596"/><path style="fill:none;stroke:#000;stroke-width:3;stroke-linecap:round;stroke-linejoin:round;stroke-miterlimit:10" d="M414.35 435.15s10.5 14.25 10.5 28.5M260.268 400.606c-3.124-5.157-5.539-9.064-4.921-12.958M283.325 397.617a79.686 79.686 0 0 1 1.635 3.183M220.569 508.016c14.304 5.962 34.625 12.196 63.031 16.884M310.824 471.602c1.252.922 3.693 2.653 5.338 3.215M313.1 484.983s.834 2.583 4.834 7.917"/><path style="fill:none;stroke:#000;stroke-width:3;stroke-linecap:round;stroke-linejoin:round;stroke-miterlimit:10" d="M350.442 513.38c.566-4.884.907-10.07.907-15.48 0-8.333-8.56-22.811-12.917-29.25-5.583-8.25-27.833-45-36.833-41.5-8.42 3.274-8.963 31.06 9.225 44.452 0 0 4.525 8.381 2.275 13.381 0 0-34 16.75-25 61.75M274.433 568.733c8.333.792 13.758-3.491 23.542-3 8.058.404 15.125-2.666 20.125-2.666M367.847 458.663s50.253 30.236 63.753 30.236"/><path style="fill:none;stroke:#000;stroke-width:3;stroke-linecap:round;stroke-linejoin:round;stroke-miterlimit:10" d="M342.691 475.45s32.493 23.367 51.909 25.617M351.233 503.392s10.844 3.887 14.366 4.258M308.295 429.302c6.383.66 17.367 4.348 25.805.598 0 0 22.75 44.25 65 24.75M291.487 401.288a52.147 52.147 0 0 1-3.387 1.611c-7 3-32 16.25-27.5 28.75 3.719 10.329 23.612 9.605 35.946 3.506"/><path style="fill:none;stroke:#000;stroke-width:3;stroke-linecap:round;stroke-linejoin:round;stroke-miterlimit:10" d="M273.315 411.26c2.351-1.525 7.098-1.59 9.608.92 3.228 3.228 3.813 6.697-2.698 13.208-9.779 9.779-14.958 9.429-19.958 5.103M303.587 426.974c-4.987 0 2.771 24.348 16.704 15.199"/><g><path transform="translate(-.038 -.045)" style="fill:#fff;stroke:#000;stroke-width:3;stroke-linecap:round;stroke-linejoin:round" d="M361.937 270.945v-153H241.138v153l-22 56.5h164.799l-22-56.5z"/><path transform="translate(-.038 -.045)" style="fill:#fff;stroke:#000;stroke-width:3;stroke-linecap:round;stroke-linejoin:round" d="m301.537 60.445-71.399 59h142.799l-71.4-59z"/><path style="stroke:#000;stroke-width:3;stroke-linecap:round;stroke-linejoin:round" d="M271.299 133.1c-2.034 0-5.8 3.764-5.8 6.967v35.5H277.1v-35.5c0-3.204-3.767-6.967-5.801-6.967zM331.698 133.1c2.034 0 5.801 3.764 5.801 6.967v35.5h-11.601v-35.5c.001-3.204 3.767-6.967 5.8-6.967z"/><path style="fill:none;stroke:#000;stroke-width:3;stroke-linecap:round;stroke-linejoin:round" d="M301.499 256.936c-6.399 0-20.601 6.753-20.601 18.13v52.333h41.201v-52.333c.001-11.377-14.2-18.13-20.6-18.13z"/><path style="fill:none;stroke:#000;stroke-width:3;stroke-linecap:round;stroke-linejoin:round" d="M288.899 275.067c0-5.813 9.648-10.13 12.601-10.13 2.953 0 12.601 4.317 12.601 10.13V327.4H288.9l-.001-52.333zM288.899 278.566H314.1M314.1 286.705h-25.201M314.1 294.844h-25.201M314.1 302.983h-25.201M314.1 311.122h-25.201M314.1 319.261h-25.201"/></g></g><g style="display:inline"><path style="fill:url(#b);fill-opacity:1" d="M1.5 1.5v458.868c0 166.31 134.315 301.132 300 301.132s300-134.821 300-301.132V1.5H1.5z"/></g><g style="display:inline"><path style="fill:none;fill-opacity:1;stroke:#000;stroke-width:3;stroke-miterlimit:4;stroke-dasharray:none;stroke-opacity:1" d="M1.5 1.5v458.868c0 166.31 134.315 301.132 300 301.132s300-134.821 300-301.132V1.5H1.5z"/></g></svg>

<?xml version="1.0" encoding="UTF-8" standalone="no"?>
<svg
   xmlns:dc="http://purl.org/dc/elements/1.1/"
   xmlns:cc="http://creativecommons.org/ns#"
   xmlns:rdf="http://www.w3.org/1999/02/22-rdf-syntax-ns#"
   xmlns:svg="http://www.w3.org/2000/svg"
   xmlns="http://www.w3.org/2000/svg"
   xmlns:xlink="http://www.w3.org/1999/xlink"
   xmlns:sodipodi="http://sodipodi.sourceforge.net/DTD/sodipodi-0.dtd"
   xmlns:inkscape="http://www.inkscape.org/namespaces/inkscape"
   height="763"
   width="603"
   version="1.0"
   id="svg20"
   sodipodi:version="0.32"
   inkscape:version="0.46"
   sodipodi:docname="Prangins-coat_of_arms.svg"
   sodipodi:docbase="C:\Documents and Settings\Steve\Bureau\Blason Villages Suisse pour Wikipédia (par Delta-9)"
   inkscape:output_extension="org.inkscape.output.svg.inkscape">
  <metadata
     id="metadata31">
    <rdf:RDF>
      <cc:Work
         rdf:about="">
        <dc:format>image/svg+xml</dc:format>
        <dc:type
           rdf:resource="http://purl.org/dc/dcmitype/StillImage" />
        <dc:date>07-AUG-2006</dc:date>
        <dc:creator>
          <cc:Agent>
            <dc:title>Jérôme BLUM (wagner51)</dc:title>
          </cc:Agent>
        </dc:creator>
        <cc:license
           rdf:resource="http://creativecommons.org/licenses/GPL/2.0/" />
        <dc:coverage />
        <dc:description>Gabarit pour le Projet:Blasons de WIkipédia</dc:description>
        <dc:subject>
          <rdf:Bag>
            <rdf:li>blason suisse modèle gabarit projet blasons</rdf:li>
          </rdf:Bag>
        </dc:subject>
        <dc:language>fr</dc:language>
        <dc:title>Gabrit d'un blason suisse</dc:title>
      </cc:Work>
      <cc:License
         rdf:about="http://creativecommons.org/licenses/GPL/2.0/">
        <cc:permits
           rdf:resource="http://web.resource.org/cc/Reproduction" />
        <cc:permits
           rdf:resource="http://web.resource.org/cc/Distribution" />
        <cc:requires
           rdf:resource="http://web.resource.org/cc/Notice" />
        <cc:permits
           rdf:resource="http://web.resource.org/cc/DerivativeWorks" />
        <cc:requires
           rdf:resource="http://web.resource.org/cc/ShareAlike" />
        <cc:requires
           rdf:resource="http://web.resource.org/cc/SourceCode" />
      </cc:License>
    </rdf:RDF>
  </metadata>
  <defs
     id="defs29"><inkscape:perspective
   sodipodi:type="inkscape:persp3d"
   inkscape:vp_x="0 : 381.5 : 1"
   inkscape:vp_y="0 : 1000 : 0"
   inkscape:vp_z="603 : 381.5 : 1"
   inkscape:persp3d-origin="301.5 : 254.33333 : 1"
   id="perspective28" />
<linearGradient
   id="linearGradient2893">
  <stop
     style="stop-color:#ffffff;stop-opacity:0.3137255;"
     offset="0"
     id="stop2895" />
  <stop
     id="stop2897"
     offset="0.19"
     style="stop-color:#ffffff;stop-opacity:0.25098041;" />
  <stop
     style="stop-color:#6b6b6b;stop-opacity:0.1254902;"
     offset="0.60000002"
     id="stop2901" />
  <stop
     style="stop-color:#000000;stop-opacity:0.1254902;"
     offset="1"
     id="stop2899" />
</linearGradient>
<linearGradient
   id="linearGradient2955">
  <stop
     style="stop-color:white;stop-opacity:0;"
     offset="0"
     id="stop2965" />
  <stop
     style="stop-color:black;stop-opacity:0.64583331;"
     offset="1"
     id="stop2959" />
</linearGradient>
<radialGradient
   inkscape:collect="always"
   xlink:href="#linearGradient2893"
   id="radialGradient3236"
   gradientUnits="userSpaceOnUse"
   gradientTransform="matrix(1.215027,1.531577e-24,1.464684e-23,1.266667,-839.1924,-490.4894)"
   cx="858.04236"
   cy="579.93323"
   fx="858.04236"
   fy="579.93323"
   r="300" />
<inkscape:perspective
   id="perspective2618"
   inkscape:persp3d-origin="297.63751 : 280.63 : 1"
   inkscape:vp_z="595.27502 : 420.94501 : 1"
   inkscape:vp_y="0 : 1000 : 0"
   inkscape:vp_x="0 : 420.94501 : 1"
   sodipodi:type="inkscape:persp3d" />

	
	

	

		
		
		
	
		
		
	
			
			
			
			
			
			
			
			
			
			
			
			
			
			
			
		
			
			
			
			
			
		
			
			
			
				
			
				
			
				
			
				
			
				
			
				
		
			
			
		
			
			
		</defs>
  <sodipodi:namedview
     inkscape:window-height="968"
     inkscape:window-width="1280"
     inkscape:pageshadow="2"
     inkscape:pageopacity="0.0"
     guidetolerance="10.0"
     gridtolerance="10.0"
     objecttolerance="10.0"
     borderopacity="1.0"
     bordercolor="#666666"
     pagecolor="#ffffff"
     id="base"
     inkscape:zoom="0.9767969"
     inkscape:cx="312.71149"
     inkscape:cy="377.47809"
     inkscape:window-x="1280"
     inkscape:window-y="22"
     inkscape:current-layer="layer2"
     showgrid="false"
     showguides="true"
     inkscape:guide-bbox="true">
    <sodipodi:guide
       orientation="horizontal"
       position="761.5"
       id="guide1885" />
    <sodipodi:guide
       orientation="vertical"
       position="1.5"
       id="guide1887" />
    <sodipodi:guide
       orientation="horizontal"
       position="1.5"
       id="guide1889" />
    <sodipodi:guide
       orientation="vertical"
       position="601.5"
       id="guide1891" />
    <sodipodi:guide
       orientation="vertical"
       position="301.50081"
       id="guide1893" />
  </sodipodi:namedview>
  <desc
     id="desc22">Coat of Arms of Canton of Freiburg (Fribourg)</desc>
  <g
     inkscape:groupmode="layer"
     id="layer1"
     inkscape:label="Fond écu"
     style="opacity:1;display:inline"
     sodipodi:insensitive="true">
    <path
       d="M 1.5,1.5 L 1.5,460.369 C 1.5,626.68 135.814,761.5 301.5,761.5 C 467.186,761.5 601.5,626.68 601.5,460.369 L 601.5,1.5 L 1.5,1.5 z"
       id="path2625"
       style="opacity:1;fill:#2b5df2" />
  </g>
  <g
     inkscape:groupmode="layer"
     id="layer2"
     inkscape:label="Meubles"
     style="opacity:1;display:inline"
     sodipodi:insensitive="true">
    <g
       id="g2846">
      <path
         style="fill:#ffffff;stroke:#000000;stroke-width:3;stroke-linecap:round;stroke-linejoin:round"
         d="M 241.158,402.734 C 240.349,397.4 238.187,390.731 246.349,386.65 C 251.349,384.15 255.346,387.648 255.346,387.648 C 255.651,385.723 256.698,383.801 258.765,381.733 C 265.015,375.483 270.432,380.899 274.432,384.899 C 277.643,388.11 280.889,393.125 283.324,397.616 C 282.602,393.737 279.599,384.733 288.099,381.233 C 296.599,377.733 301.903,389.268 303.834,396.417 L 305.724,401.899 L 243.724,413.149 L 241.158,402.734 z"
         id="path2539" />
      <path
         style="fill:#ffffff"
         d="M 601.499,460.369 L 601.499,404.455 C 530.137,405.147 477.462,412.9 453.1,412.9 C 427.6,412.9 424.85,411.15 413.1,411.15 C 413.1,411.15 382.85,388.65 346.1,388.65 C 335.35,388.65 317.1,396.15 307.85,396.15 C 300.21,396.15 296.493,398.708 291.487,401.289 C 223.826,395.367 202.433,419.067 202.433,419.067 C 186.1,415.4 186.433,419.067 142.433,417.4 C 107.383,416.072 31.088,413.899 1.499,413.069 L 1.499,460.368 C 1.499,472.542 2.239,484.54 3.638,496.336 C 73.274,494.062 122.351,491.978 150.349,489.399 C 169.349,487.649 189.599,488.899 189.599,488.899 C 189.599,488.899 196.728,498.079 220.568,508.015 C 220.568,508.015 226.099,547.899 266.599,579.899 C 265.099,588.899 265.861,595.569 262.349,618.399 C 259.721,635.485 256.389,704.775 255.603,757.995 C 270.566,760.301 285.893,761.499 301.498,761.499 C 316.218,761.499 330.683,760.415 344.835,758.359 C 345.153,702.648 346.341,645.313 343.099,621.732 C 339.433,595.066 339.433,567.733 339.433,554.066 C 339.433,554.066 347.661,537.38 350.442,513.379 C 350.442,513.379 357.724,515.524 365.599,507.649 C 365.599,507.649 383.099,509.316 394.599,501.066 C 394.599,501.066 413.099,504.149 431.599,488.899 C 431.599,488.899 442.849,488.399 452.099,488.399 C 468.462,488.399 523.521,494.022 599.557,494.6 C 600.825,483.364 601.499,471.946 601.499,460.369 z"
         id="path2541" />
      <path
         style="fill:none;stroke:#000000;stroke-width:3;stroke-linecap:round;stroke-linejoin:round"
         d="M 601.499,404.455 C 530.137,405.147 477.462,412.9 453.1,412.9 C 427.6,412.9 424.85,411.15 413.1,411.15 C 413.1,411.15 382.85,388.65 346.1,388.65 C 335.35,388.65 317.1,396.15 307.85,396.15 C 300.21,396.15 296.493,398.708 291.487,401.289 C 223.826,395.367 202.433,419.067 202.433,419.067 C 186.1,415.4 186.433,419.067 142.433,417.4 C 107.383,416.072 31.088,413.899 1.499,413.069"
         id="path2543" />
      <path
         style="fill:none;stroke:#000000;stroke-width:3;stroke-linecap:round;stroke-linejoin:round"
         d="M 344.836,758.36 C 345.154,702.649 346.342,645.314 343.1,621.733 C 339.434,595.067 339.434,567.734 339.434,554.067 C 339.434,554.067 347.662,537.381 350.443,513.38 C 350.443,513.38 357.725,515.525 365.6,507.65 C 365.6,507.65 383.1,509.317 394.6,501.067 C 394.6,501.067 413.1,504.15 431.6,488.9 C 431.6,488.9 442.85,488.4 452.1,488.4 C 468.463,488.4 523.522,494.023 599.558,494.601"
         id="path2545" />
      <path
         style="fill:none;stroke:#000000;stroke-width:3;stroke-linecap:round;stroke-linejoin:round"
         d="M 3.638,496.336 C 73.274,494.062 122.351,491.978 150.349,489.399 C 169.349,487.649 189.599,488.899 189.599,488.899 C 189.599,488.899 196.728,498.079 220.568,508.015 C 220.568,508.015 226.099,547.899 266.599,579.899 C 265.099,588.899 265.861,595.569 262.349,618.399 C 259.721,635.485 256.389,704.775 255.603,757.995"
         id="path2547" />
      <path
         style="fill:none;stroke:#000000;stroke-width:3;stroke-linecap:round;stroke-linejoin:round;stroke-miterlimit:10"
         stroke-miterlimit="10"
         d="M 414.35,435.15 C 414.35,435.15 424.85,449.4 424.85,463.65"
         id="path2551" />
      <path
         style="fill:none;stroke:#000000;stroke-width:3;stroke-linecap:round;stroke-linejoin:round;stroke-miterlimit:10"
         stroke-miterlimit="10"
         d="M 260.268,400.606 C 257.144,395.449 254.729,391.542 255.347,387.648"
         id="path2553" />
      <path
         style="fill:none;stroke:#000000;stroke-width:3;stroke-linecap:round;stroke-linejoin:round;stroke-miterlimit:10"
         stroke-miterlimit="10"
         d="M 283.325,397.617 C 283.923,398.721 284.472,399.793 284.96,400.8"
         id="path2555" />
      <path
         style="fill:none;stroke:#000000;stroke-width:3;stroke-linecap:round;stroke-linejoin:round;stroke-miterlimit:10"
         stroke-miterlimit="10"
         d="M 220.569,508.016 C 234.873,513.978 255.194,520.212 283.6,524.9"
         id="path2557" />
      <path
         style="fill:none;stroke:#000000;stroke-width:3;stroke-linecap:round;stroke-linejoin:round;stroke-miterlimit:10"
         stroke-miterlimit="10"
         d="M 310.824,471.602 C 312.076,472.524 314.517,474.255 316.162,474.817"
         id="path2559" />
      <path
         style="fill:none;stroke:#000000;stroke-width:3;stroke-linecap:round;stroke-linejoin:round;stroke-miterlimit:10"
         stroke-miterlimit="10"
         d="M 313.1,484.983 C 313.1,484.983 313.934,487.566 317.934,492.9"
         id="path2561" />
      <path
         style="fill:none;stroke:#000000;stroke-width:3;stroke-linecap:round;stroke-linejoin:round;stroke-miterlimit:10"
         stroke-miterlimit="10"
         d="M 350.442,513.38 C 351.008,508.496 351.349,503.31 351.349,497.9 C 351.349,489.567 342.789,475.089 338.432,468.65 C 332.849,460.4 310.599,423.65 301.599,427.15 C 293.179,430.424 292.636,458.21 310.824,471.602 C 310.824,471.602 315.349,479.983 313.099,484.983 C 313.099,484.983 279.099,501.733 288.099,546.733"
         id="path2563" />
      <path
         style="fill:none;stroke:#000000;stroke-width:3;stroke-linecap:round;stroke-linejoin:round;stroke-miterlimit:10"
         stroke-miterlimit="10"
         d="M 274.433,568.733 C 282.766,569.525 288.191,565.242 297.975,565.733 C 306.033,566.137 313.1,563.067 318.1,563.067"
         id="path2565" />
      <path
         style="fill:none;stroke:#000000;stroke-width:3;stroke-linecap:round;stroke-linejoin:round;stroke-miterlimit:10"
         stroke-miterlimit="10"
         d="M 367.847,458.663 C 367.847,458.663 418.1,488.899 431.6,488.899"
         id="path2567" />
      <path
         style="fill:none;stroke:#000000;stroke-width:3;stroke-linecap:round;stroke-linejoin:round;stroke-miterlimit:10"
         stroke-miterlimit="10"
         d="M 342.691,475.45 C 342.691,475.45 375.184,498.817 394.6,501.067"
         id="path2569" />
      <path
         style="fill:none;stroke:#000000;stroke-width:3;stroke-linecap:round;stroke-linejoin:round;stroke-miterlimit:10"
         stroke-miterlimit="10"
         d="M 351.233,503.392 C 351.233,503.392 362.077,507.279 365.599,507.65"
         id="path2571" />
      <path
         style="fill:none;stroke:#000000;stroke-width:3;stroke-linecap:round;stroke-linejoin:round;stroke-miterlimit:10"
         stroke-miterlimit="10"
         d="M 308.295,429.302 C 314.678,429.962 325.662,433.65 334.1,429.9 C 334.1,429.9 356.85,474.15 399.1,454.65"
         id="path2573" />
      <path
         style="fill:none;stroke:#000000;stroke-width:3;stroke-linecap:round;stroke-linejoin:round;stroke-miterlimit:10"
         stroke-miterlimit="10"
         d="M 291.487,401.288 C 290.431,401.832 289.319,402.377 288.1,402.899 C 281.1,405.899 256.1,419.149 260.6,431.649 C 264.319,441.978 284.212,441.254 296.546,435.155"
         id="path2575" />
      <path
         style="fill:none;stroke:#000000;stroke-width:3;stroke-linecap:round;stroke-linejoin:round;stroke-miterlimit:10"
         stroke-miterlimit="10"
         d="M 273.315,411.26 C 275.666,409.735 280.413,409.67 282.923,412.18 C 286.151,415.408 286.736,418.877 280.225,425.388 C 270.446,435.167 265.267,434.817 260.267,430.491"
         id="path2577" />
      <path
         style="fill:none;stroke:#000000;stroke-width:3;stroke-linecap:round;stroke-linejoin:round;stroke-miterlimit:10"
         stroke-miterlimit="10"
         d="M 303.587,426.974 C 298.6,426.974 306.358,451.322 320.291,442.173"
         id="path2579" />
    </g>
    <g
       id="g2832">
      <polygon
         transform="translate(-3.8e-2,-4.5e-2)"
         style="fill:#ffffff;stroke:#000000;stroke-width:3;stroke-linecap:round;stroke-linejoin:round"
         points="361.937,270.945 361.937,117.945 241.138,117.945 241.138,270.945 219.138,327.445 383.937,327.445 361.937,270.945 "
         id="polygon2585" />
      <polygon
         transform="translate(-3.8e-2,-4.5e-2)"
         style="fill:#ffffff;stroke:#000000;stroke-width:3;stroke-linecap:round;stroke-linejoin:round"
         points="301.537,60.445 230.138,119.445 372.937,119.445 301.537,60.445 "
         id="polygon2587" />
      <path
         style="stroke:#000000;stroke-width:3;stroke-linecap:round;stroke-linejoin:round"
         d="M 271.299,133.1 C 269.265,133.1 265.499,136.864 265.499,140.067 L 265.499,175.567 L 277.1,175.567 L 277.1,140.067 C 277.1,136.863 273.333,133.1 271.299,133.1 z"
         id="path2591" />
      <path
         style="stroke:#000000;stroke-width:3;stroke-linecap:round;stroke-linejoin:round"
         d="M 331.698,133.1 C 333.732,133.1 337.499,136.864 337.499,140.067 L 337.499,175.567 L 325.898,175.567 L 325.898,140.067 C 325.899,136.863 329.665,133.1 331.698,133.1 z"
         id="path2593" />
      <path
         style="fill:none;stroke:#000000;stroke-width:3;stroke-linecap:round;stroke-linejoin:round"
         d="M 301.499,256.936 C 295.1,256.936 280.898,263.689 280.898,275.066 L 280.898,327.399 L 322.099,327.399 L 322.099,275.066 C 322.1,263.689 307.899,256.936 301.499,256.936 z"
         id="path2597" />
      <path
         style="fill:none;stroke:#000000;stroke-width:3;stroke-linecap:round;stroke-linejoin:round"
         d="M 288.899,275.067 C 288.899,269.254 298.547,264.937 301.5,264.937 C 304.453,264.937 314.101,269.254 314.101,275.067 C 314.101,275.067 314.101,315.918 314.101,327.4 C 306.214,327.4 296.786,327.4 288.9,327.4 C 288.899,315.918 288.899,275.067 288.899,275.067 z"
         id="path2599" />
      <line
         style="fill:none;stroke:#000000;stroke-width:3;stroke-linecap:round;stroke-linejoin:round"
         x1="288.89902"
         y1="278.56598"
         x2="314.10001"
         y2="278.56598"
         id="line2601" />
      <line
         style="fill:none;stroke:#000000;stroke-width:3;stroke-linecap:round;stroke-linejoin:round"
         x1="314.10001"
         y1="286.70499"
         x2="288.89902"
         y2="286.70499"
         id="line2603" />
      <line
         style="fill:none;stroke:#000000;stroke-width:3;stroke-linecap:round;stroke-linejoin:round"
         x1="314.10001"
         y1="294.84399"
         x2="288.89902"
         y2="294.84399"
         id="line2605" />
      <line
         style="fill:none;stroke:#000000;stroke-width:3;stroke-linecap:round;stroke-linejoin:round"
         x1="314.10001"
         y1="302.983"
         x2="288.89902"
         y2="302.983"
         id="line2607" />
      <line
         style="fill:none;stroke:#000000;stroke-width:3;stroke-linecap:round;stroke-linejoin:round"
         x1="314.10001"
         y1="311.12198"
         x2="288.89902"
         y2="311.12198"
         id="line2609" />
      <line
         style="fill:none;stroke:#000000;stroke-width:3;stroke-linecap:round;stroke-linejoin:round"
         x1="314.10001"
         y1="319.26099"
         x2="288.89902"
         y2="319.26099"
         id="line2611" />
    </g>
  </g>
  <g
     inkscape:groupmode="layer"
     id="layer3"
     inkscape:label="Reflet final"
     style="display:inline"
     sodipodi:insensitive="true">
    <path
       style="fill:url(#radialGradient3236);fill-opacity:1"
       d="M 1.5,1.5 L 1.5,460.3679 C 1.5,626.67854 135.81454,761.5 301.49993,761.5 C 467.1854,761.5 601.5,626.67854 601.5,460.3679 L 601.5,1.5 L 1.5,1.5 z"
       id="path2346" />
  </g>
  <g
     inkscape:groupmode="layer"
     id="layer4"
     inkscape:label="Contour final"
     style="display:inline"
     sodipodi:insensitive="true">
    <path
       style="fill:none;fill-opacity:1;stroke:#000000;stroke-width:3;stroke-miterlimit:4;stroke-dasharray:none;stroke-opacity:1"
       d="M 1.5,1.5 L 1.5,460.36794 C 1.5,626.67854 135.81454,761.5 301.49993,761.5 C 467.1854,761.5 601.5,626.67854 601.5,460.36794 L 601.5,1.5 L 1.5,1.5 z"
       id="path3239" />
  </g>
</svg>
